X: 2242
T: Nylandspojkarnas Polska (mittifr\aan)
O: Bingsj\"o
S: Bruce Sagan's "scanfolk" session archive 2021-7-12
F: https://nordicfiddlesandfeet.org/Allspel/Nylandspojkarnaspolska.pdf
R: polska
Z: 2021 John Chambers <jc:trillian.mit.edu>
M: 3/4
L: 1/16
K: D	% and A
A2- !segno!|:\
A2FA {A}B2B2 A4 | {B}A2FA d2d2 A4 | B3A G2F2 E4 | a3gl f2ef d4 |
A2FA {A}B2B2 A4 | {B}A2FA d2d2 A4 | B3A G2F2 E3D | (CD)EC "^Fine"D8 :|[K:A]
|:\
({f}ab)af d2ff d2f2 | (ab)ae c2ee c2e2 | f3e d2c2 B3A | (EG)BG A2AE C2E2 |
({f}ab)af d2ff d2f2 | (ab)ae c2ee c2e2 | f3e d2c2 B3A | (EG)BG A8 :|
